X:10
T:James Bailey in Bombay. LIT.010
M:2/4
Q:1/4=140
L:1/8
B:Wm. Litten MS, 1802
Z:Village Music Project 2017 Anne Wride
K:F
A>c d/c/A/F/ | B>d f>d | c>c d>c | GB AG |
A>c d/c/A/F/ | B>d f>d | cf AG | F2F2 :|
|:f2 ed | c>d cB | fc AF | cB AG |
A>c d/c/A/F/ | B>d fd | c>f AG | F2F2 :|

